X:65
T:The Raw Recruit 
C:To M.L.Maynard, Fifer, Chardon O. Co.E.105th O.V.I.
B:American Veteran Fifer #65
M:6/8
L:1/8
Q:1/8=300
K:D
|: A|d2d def|d2d d2f|ecA Acd|ecA ABc|d2d def|d2d dgf|ecA ABc|d3 -d2 :|
|: f|a2f a2f|d2d dfg|b2g b2g|e2e efg|a2f a2f|d2d dgf|ecA ABc|d3 -d2 :|
